X:4613
T:New Tyrolese Waltz. CJF.023
O:england
M:3/4
L:1/8
Q:120
C:
S: C.J.Fox MS, 1829/33, Beverley,E.Yorks.
R:Waltz
A:East Yorkshire
B:Kidson Coll.Mitchell Lib.M1805
K:G
"p"D2|"Andantino"G>G B>B d>d|d>bg2 ((3Bd.g)|a2c'z ((3Acf)|\
g2bz"f"D2|G>G B>B d>d|d>bg2 ((3Bdg)|a2c'z ((3Ac.f)|g4:|
"p" ((3Bd.g)|((3Ac.f) a2 ((3Ac.f)| ((3Bd.g) b2 ((3B"f"d.g) |\
((3Ac.f) a2 ((3Ac.f)| ((3Bd.g) b2D2|"p"G>G B>B d>d|d>bg2 ((3Bd.g)|\
a2c'z ((3Ac.f)|g4:|


